X:270
T:Hank's Dream
M:4/4
C:Becky Dorsy
K:A
ed ||: cBcd e2 c2 | BABc A2 E2 | F2 B2 Bcdc | BAGF E4  |
     A2 c2 B2 d2 | cefg  a2 e2    | f2 d2 e2 c2 |1 c2 B2 B2 ed :||2 c2 B2 B3
c |
|
     d2 B2 B2 cd |  e2 c2 c2 e2  | fedc dcBA  | B3 A B4     |
    F2 BF  FFBF   | E2 AE EEAE   | E2 A2 cBAG |1 A4 A2 Bc :||2 A4 A2 ed ||
% Written by ABC2Win  2.2.119 on 6/6/2006
